X:1
T:Title
%%score { 1 | 2 }
L:1/8
M:4/4
K:Ab
V:1 treble nm="Grand Piano"
V:2 bass 
V:1
 z4 z2 z[Q:1/4=100] [CE] | [CA]>[DB] [Ec][DB] [CA][DF][CE][CE] | E>F EE [CE]>[DF] [CE][CE] | %3
 [CA]>[DB] [Ec][DB] [CA][DF][CE][Ec] | [=DB]>[DF] [DG][DA] B4 | c2 e2 [Ec]3 [CE] | %6
 [DF]2 [FA]2 [Ec]3 [Ec] | c>B B=A BdcB | [CA]>[CG] [CA][DF] [CE]4 | c2 e2 [Ec]3 [_Ge] | %10
 [Fd]2 [=EA]2 [_Ec]3 [Ec] | c>B B=A BdcB |[M:7/8] [CA]-[CA]-[CA]- [CA]3 z |] %13
V:2
 z4 z2 z [A,,A,] | [A,,E,]>[A,,E,] [A,,A,][A,,A,] [A,,E,][A,,E,][A,,A,][A,,A,] | %2
 [E,G,D]>[E,A,D] [E,G,D][E,G,D] [A,,A,]>[A,,A,] [A,,A,][A,,A,] | %3
 [A,,E,]>[A,,E,] [A,,A,][A,,A,] [A,,E,][A,,E,][A,,A,][A,,A,] | %4
 [B,,F,]>[B,,B,] [B,,B,][B,,A,] [E,G,D]4 | [A,C]2 [A,CE]2 [A,,A,]3 [A,,A,] | %6
 [D,A,]2 [D,A,]2 [A,,A,]3 [A,,A,] | [E,G,D]>[E,G,D] [E,G,D][E,_G,C] [E,=G,D][E,G,F][E,G,E][E,G,D] | %8
 [A,,E,]>[A,,E,] [A,,E,][A,,F,] [A,,A,]4 | [A,E]2 [A,CE]2 [A,,A,]3 [A,,A,] | %10
 [D,A,]2 [D,A,]2 [A,,A,]3 [A,,A,] | [E,G,D]>[E,G,D] [E,G,D][E,_G,C] [E,=G,D][E,G,F][E,G,E][E,G,D] | %12
[M:7/8] [A,,A,]-[A,,A,]-[A,,A,]- [A,,A,]3 z |] %13

